assets/HiGHS_banner.svg

<?xml version="1.0" encoding="UTF-8" standalone="no"?>
<svg
   version="1.1"
   width="1920px"
   height="393px"
   style="shape-rendering:geometricPrecision; text-rendering:geometricPrecision; image-rendering:optimizeQuality; fill-rule:evenodd; clip-rule:evenodd"
   id="svg15"
   sodipodi:docname="HiGHS_banner.svg"
   inkscape:version="1.3.2 (091e20ef0f, 2023-11-25)"
   xmlns:inkscape="http://www.inkscape.org/namespaces/inkscape"
   xmlns:sodipodi="http://sodipodi.sourceforge.net/DTD/sodipodi-0.dtd"
   xmlns="http://www.w3.org/2000/svg"
   xmlns:svg="http://www.w3.org/2000/svg">
  <defs
     id="defs15" />
  <sodipodi:namedview
     id="namedview15"
     pagecolor="#505050"
     bordercolor="#eeeeee"
     borderopacity="1"
     inkscape:showpageshadow="0"
     inkscape:pageopacity="0"
     inkscape:pagecheckerboard="0"
     inkscape:deskcolor="#505050"
     inkscape:zoom="0.97395833"
     inkscape:cx="959.48663"
     inkscape:cy="196.10695"
     inkscape:window-width="2560"
     inkscape:window-height="1371"
     inkscape:window-x="2560"
     inkscape:window-y="32"
     inkscape:window-maximized="1"
     inkscape:current-layer="svg15" />
  <g
     id="g1">
    <path
       style="display:inline;opacity:1"
       fill="#d90200"
       d="m 223.5,-0.5 c 0.667,0 1.333,0 2,0 74.069,129.136 148.402,258.136 223,387 -74.33,1.333 -148.997,2 -224,2 -75.003,0 -149.6697,-0.667 -224,-2 74.6136,-128.901 148.947,-257.901 223,-387 z"
       id="path1" />
  </g>
  <g
     id="g2">
    <path
       style="display:inline;opacity:1"
       fill="#d90b04"
       d="m 1030.5,47.5 c 1,-0.0858 1.83,0.2476 2.5,1 15.93,28.1956 32.09,56.196 48.5,84 -33.33,1.167 -66.66,1.333 -100,0.5 16.589,-28.405 32.92,-56.9054 49,-85.5 z"
       id="path2" />
  </g>
  <g
     id="g3">
    <path
       style="display:inline;opacity:1;fill:#000000;fill-opacity:1"
       fill="#040404"
       d="m 1285.5,337.5 c 1.99,-32.65 2.66,-65.65 2,-99 20.83,-0.997 41.83,-1.331 63,-1 0.17,43.335 0,86.668 -0.5,130 -23.76,14.896 -49.6,23.23 -77.5,25 -15.33,0 -30.67,0 -46,0 -55.14,-7.3 -88.3,-38.3 -99.5,-93 -7.09,-34.347 -7.09,-68.68 0,-103 14.74,-59.737 52.57,-93.904 113.5,-102.5 28.36,-3.5188 55.7,0.1478 82,11 11.71,5.048 21.71,12.381 30,22 -13.54,15.035 -27.21,29.869 -41,44.5 -23.86,-23.119 -51.52,-28.952 -83,-17.5 -18.8,8.751 -30.64,23.251 -35.5,43.5 -1.97,7.221 -3.31,14.555 -4,22 -2.11,25.36 -0.11,50.36 6,75 10.23,31.054 31.73,46.387 64.5,46 8.78,-0.13 17.44,-1.13 26,-3 z"
       id="path3" />
  </g>
  <g
     id="g4">
    <path
       style="display:inline;opacity:1;fill:#000000;fill-opacity:1"
       fill="#040404"
       d="m 1919.5,293.5 c 0,8.333 0,16.667 0,25 -7.3,31.812 -26.3,53.645 -57,65.5 -11.17,4.06 -22.5,6.893 -34,8.5 -13,0 -26,0 -39,0 -21.82,-3.105 -42.48,-9.938 -62,-20.5 -6.74,-4.07 -12.91,-8.904 -18.5,-14.5 -0.67,-1 -0.67,-2 0,-3 11.03,-16.75 22.53,-33.084 34.5,-49 1,0 2,0 3,0 19.16,20.409 42.83,31.409 71,33 12.91,0.646 23.74,-3.687 32.5,-13 7.07,-12.231 5.57,-23.231 -4.5,-33 -3.98,-3.656 -8.31,-6.822 -13,-9.5 -20.65,-9.451 -41.31,-19.118 -62,-29 -19.83,-9.833 -34.67,-24.667 -44.5,-44.5 -13.59,-45.25 -0.09,-79.75 40.5,-103.5 24.03,-11.6252 49.37,-15.6252 76,-12 27.58,2.9518 50.92,14.285 70,34 -13.15,15.98 -26.48,31.813 -40,47.5 -17.34,-21.328 -39.68,-29.828 -67,-25.5 -18.89,7.693 -23.73,20.526 -14.5,38.5 3.53,3.869 7.37,7.369 11.5,10.5 21.36,11.112 43.02,21.445 65,31 18.3,8.961 32.8,22.128 43.5,39.5 3.76,7.796 6.6,15.796 8.5,24 z"
       id="path4" />
  </g>
  <g
     id="g5">
    <path
       style="display:inline;opacity:1;fill:#000000;fill-opacity:1"
       fill="#070707"
       d="m 694.5,96.5 c 20.909,-0.3267 41.742,0.0066 62.5,1 0.5,39.665 0.667,79.332 0.5,119 35,0 70,0 105,0 -0.167,-39.668 0,-79.335 0.5,-119 21.094,-1.1597 42.26,-1.3264 63.5,-0.5 1.165,96.763 1.332,193.597 0.5,290.5 -21.425,0.994 -42.925,1.327 -64.5,1 0,-39.667 0,-79.333 0,-119 -35,0 -70,0 -105,0 0,39.667 0,79.333 0,119 -21.667,0 -43.333,0 -65,0 -0.661,-97.545 0.006,-194.878 2,-292 z"
       id="path5" />
  </g>
  <g
     id="g6">
    <path
       style="opacity:1;fill:#000000;fill-opacity:1"
       fill="#020202"
       d="M 1652.5,97.5 C 1652.5,194.167 1652.5,290.833 1652.5,387.5C 1631.83,387.5 1611.17,387.5 1590.5,387.5C 1590.83,347.996 1590.5,308.663 1589.5,269.5C 1554.5,269.5 1519.5,269.5 1484.5,269.5C 1484.5,309.167 1484.5,348.833 1484.5,388.5C 1463.17,388.5 1441.83,388.5 1420.5,388.5C 1420.5,291.167 1420.5,193.833 1420.5,96.5C 1441.74,96.1732 1462.91,96.5065 1484,97.5C 1484.5,137.165 1484.67,176.832 1484.5,216.5C 1519.5,216.5 1554.5,216.5 1589.5,216.5C 1589.33,176.832 1589.5,137.165 1590,97.5C 1610.93,96.1689 1631.76,96.1689 1652.5,97.5 Z"
       id="path6" />
  </g>
  <g
     id="g9">
    <path
       style="display:inline;opacity:1;fill:#000000;fill-opacity:1"
       fill="#020202"
       d="m 451.5,98.5 c 56.157,95.637 111.823,191.637 167,288 -45.988,1.995 -92.321,2.662 -139,2 -33.492,-56.308 -66.492,-112.975 -99,-170 22.774,-39.893 45.774,-79.56 69,-119 0.667,-0.3333 1.333,-0.6667 2,-1 z"
       id="path9" />
  </g>
  <g
     id="g11">
    <path
       style="display:inline;opacity:1"
       fill="#000000"
       d="m 1062.5,388.5 c -20.67,0 -41.33,0 -62,0 0,-78 0,-156 0,-234 20.67,0 41.33,0 62,0 0,78 0,156 0,234 z"
       id="path11" />
  </g>
</svg>

<?xml version="1.0" encoding="UTF-8"?>
<!DOCTYPE svg PUBLIC "-//W3C//DTD SVG 1.1//EN" "http://www.w3.org/Graphics/SVG/1.1/DTD/svg11.dtd">
<svg xmlns="http://www.w3.org/2000/svg" version="1.1" width="1920px" height="393px" style="shape-rendering:geometricPrecision; text-rendering:geometricPrecision; image-rendering:optimizeQuality; fill-rule:evenodd; clip-rule:evenodd" xmlns:xlink="http://www.w3.org/1999/xlink">
<g><path style="opacity:1" fill="#d90200" d="M 223.5,-0.5 C 224.167,-0.5 224.833,-0.5 225.5,-0.5C 299.569,128.636 373.902,257.636 448.5,386.5C 374.17,387.833 299.503,388.5 224.5,388.5C 149.497,388.5 74.8303,387.833 0.5,386.5C 75.1136,257.599 149.447,128.599 223.5,-0.5 Z"/></g>
<g><path style="opacity:1" fill="#d90b04" d="M 1030.5,47.5 C 1031.5,47.4142 1032.33,47.7476 1033,48.5C 1048.93,76.6956 1065.09,104.696 1081.5,132.5C 1048.17,133.667 1014.84,133.833 981.5,133C 998.089,104.595 1014.42,76.0946 1030.5,47.5 Z"/></g>
<g><path style="opacity:1" fill="#040404" d="M 1285.5,337.5 C 1287.49,304.85 1288.16,271.85 1287.5,238.5C 1308.33,237.503 1329.33,237.169 1350.5,237.5C 1350.67,280.835 1350.5,324.168 1350,367.5C 1326.24,382.396 1300.4,390.73 1272.5,392.5C 1257.17,392.5 1241.83,392.5 1226.5,392.5C 1171.36,385.2 1138.2,354.2 1127,299.5C 1119.91,265.153 1119.91,230.82 1127,196.5C 1141.74,136.763 1179.57,102.596 1240.5,94C 1268.86,90.4812 1296.2,94.1478 1322.5,105C 1334.21,110.048 1344.21,117.381 1352.5,127C 1338.96,142.035 1325.29,156.869 1311.5,171.5C 1287.64,148.381 1259.98,142.548 1228.5,154C 1209.7,162.751 1197.86,177.251 1193,197.5C 1191.03,204.721 1189.69,212.055 1189,219.5C 1186.89,244.86 1188.89,269.86 1195,294.5C 1205.23,325.554 1226.73,340.887 1259.5,340.5C 1268.28,340.37 1276.94,339.37 1285.5,337.5 Z"/></g>
<g><path style="opacity:1" fill="#040404" d="M 1919.5,293.5 C 1919.5,301.833 1919.5,310.167 1919.5,318.5C 1912.2,350.312 1893.2,372.145 1862.5,384C 1851.33,388.06 1840,390.893 1828.5,392.5C 1815.5,392.5 1802.5,392.5 1789.5,392.5C 1767.68,389.395 1747.02,382.562 1727.5,372C 1720.76,367.93 1714.59,363.096 1709,357.5C 1708.33,356.5 1708.33,355.5 1709,354.5C 1720.03,337.75 1731.53,321.416 1743.5,305.5C 1744.5,305.5 1745.5,305.5 1746.5,305.5C 1765.66,325.909 1789.33,336.909 1817.5,338.5C 1830.41,339.146 1841.24,334.813 1850,325.5C 1857.07,313.269 1855.57,302.269 1845.5,292.5C 1841.52,288.844 1837.19,285.678 1832.5,283C 1811.85,273.549 1791.19,263.882 1770.5,254C 1750.67,244.167 1735.83,229.333 1726,209.5C 1712.41,164.25 1725.91,129.75 1766.5,106C 1790.53,94.3748 1815.87,90.3748 1842.5,94C 1870.08,96.9518 1893.42,108.285 1912.5,128C 1899.35,143.98 1886.02,159.813 1872.5,175.5C 1855.16,154.172 1832.82,145.672 1805.5,150C 1786.61,157.693 1781.77,170.526 1791,188.5C 1794.53,192.369 1798.37,195.869 1802.5,199C 1823.86,210.112 1845.52,220.445 1867.5,230C 1885.8,238.961 1900.3,252.128 1911,269.5C 1914.76,277.296 1917.6,285.296 1919.5,293.5 Z"/></g>
<g><path style="opacity:1" fill="#070707" d="M 694.5,96.5 C 715.409,96.1733 736.242,96.5066 757,97.5C 757.5,137.165 757.667,176.832 757.5,216.5C 792.5,216.5 827.5,216.5 862.5,216.5C 862.333,176.832 862.5,137.165 863,97.5C 884.094,96.3403 905.26,96.1736 926.5,97C 927.665,193.763 927.832,290.597 927,387.5C 905.575,388.494 884.075,388.827 862.5,388.5C 862.5,348.833 862.5,309.167 862.5,269.5C 827.5,269.5 792.5,269.5 757.5,269.5C 757.5,309.167 757.5,348.833 757.5,388.5C 735.833,388.5 714.167,388.5 692.5,388.5C 691.839,290.955 692.506,193.622 694.5,96.5 Z"/></g>
<g><path style="opacity:1" fill="#020202" d="M 1652.5,97.5 C 1652.5,194.167 1652.5,290.833 1652.5,387.5C 1631.83,387.5 1611.17,387.5 1590.5,387.5C 1590.83,347.996 1590.5,308.663 1589.5,269.5C 1554.5,269.5 1519.5,269.5 1484.5,269.5C 1484.5,309.167 1484.5,348.833 1484.5,388.5C 1463.17,388.5 1441.83,388.5 1420.5,388.5C 1420.5,291.167 1420.5,193.833 1420.5,96.5C 1441.74,96.1732 1462.91,96.5065 1484,97.5C 1484.5,137.165 1484.67,176.832 1484.5,216.5C 1519.5,216.5 1554.5,216.5 1589.5,216.5C 1589.33,176.832 1589.5,137.165 1590,97.5C 1610.93,96.1689 1631.76,96.1689 1652.5,97.5 Z"/></g>
<g><path style="opacity:1" fill="#1e1e1e" d="M 1652.5,97.5 C 1653.5,194.332 1653.83,291.332 1653.5,388.5C 1632.17,388.5 1610.83,388.5 1589.5,388.5C 1589.5,348.833 1589.5,309.167 1589.5,269.5C 1590.5,308.663 1590.83,347.996 1590.5,387.5C 1611.17,387.5 1631.83,387.5 1652.5,387.5C 1652.5,290.833 1652.5,194.167 1652.5,97.5 Z"/></g>
<g><path style="opacity:1" fill="#717171" d="M 451.5,98.5 C 450.833,98.8333 450.167,99.1667 449.5,99.5C 450.032,96.5404 450.699,96.2071 451.5,98.5 Z"/></g>
<g><path style="opacity:1" fill="#020202" d="M 451.5,98.5 C 507.657,194.137 563.323,290.137 618.5,386.5C 572.512,388.495 526.179,389.162 479.5,388.5C 446.008,332.192 413.008,275.525 380.5,218.5C 403.274,178.607 426.274,138.94 449.5,99.5C 450.167,99.1667 450.833,98.8333 451.5,98.5 Z"/></g>
<g><path style="opacity:1" fill="#727272" d="M 1062.5,388.5 C 1062.5,310.5 1062.5,232.5 1062.5,154.5C 1041.83,154.5 1021.17,154.5 1000.5,154.5C 1000.5,232.5 1000.5,310.5 1000.5,388.5C 999.501,310.335 999.167,232.002 999.5,153.5C 1020.83,153.5 1042.17,153.5 1063.5,153.5C 1063.83,232.002 1063.5,310.335 1062.5,388.5 Z"/></g>
<g><path style="opacity:1" fill="#000000" d="M 1062.5,388.5 C 1041.83,388.5 1021.17,388.5 1000.5,388.5C 1000.5,310.5 1000.5,232.5 1000.5,154.5C 1021.17,154.5 1041.83,154.5 1062.5,154.5C 1062.5,232.5 1062.5,310.5 1062.5,388.5 Z"/></g>
<g><path style="opacity:1" fill="#3f3f3f" d="M 1287.5,238.5 C 1288.16,271.85 1287.49,304.85 1285.5,337.5C 1286.16,304.402 1286.83,271.402 1287.5,238.5 Z"/></g>
<g><path style="opacity:1" fill="#757575" d="M 1746.5,305.5 C 1745.5,305.5 1744.5,305.5 1743.5,305.5C 1744.26,303.015 1745.26,303.015 1746.5,305.5 Z"/></g>
<g><path style="opacity:0.22" fill="#f7cece" d="M -0.5,386.5 C -0.166667,386.5 0.166667,386.5 0.5,386.5C 74.8303,387.833 149.497,388.5 224.5,388.5C 299.503,388.5 374.17,387.833 448.5,386.5C 449.404,387.209 449.737,388.209 449.5,389.5C 299.5,389.5 149.5,389.5 -0.5,389.5C -0.5,388.5 -0.5,387.5 -0.5,386.5 Z"/></g>
<g><path style="opacity:0.176" fill="#cecece" d="M 618.5,386.5 C 619.404,387.209 619.737,388.209 619.5,389.5C 572.664,389.832 525.997,389.499 479.5,388.5C 526.179,389.162 572.512,388.495 618.5,386.5 Z"/></g>
</svg>
